icons/desktop/16/svg/storage-slash-16.svg

<svg width="16" height="16" viewBox="0 0 16 16" fill="none" xmlns="http://www.w3.org/2000/svg">
<path d="M4.00098 6.99994C4.55326 6.99994 5.00098 7.44766 5.00098 7.99994C5.00098 8.55223 4.55326 8.99994 4.00098 8.99994C3.44869 8.99994 3.00098 8.55223 3.00098 7.99994C3.00098 7.44766 3.44869 6.99994 4.00098 6.99994Z" fill="black"/>
<path fill-rule="evenodd" clip-rule="evenodd" d="M0.220703 0.21967C0.513596 -0.0732233 0.988357 -0.0732233 1.28125 0.21967L4.21289 3.15131H4.21582L5.62695 4.56147H5.62305L12.3613 11.2997H12.3662L13.7393 12.6728H13.7344L15.7812 14.7197C16.0741 15.0126 16.0741 15.4873 15.7812 15.7802C15.4884 16.0731 15.0136 16.0731 14.7207 15.7802L11.8027 12.8622C10.5338 12.9524 9.25946 12.9999 8 12.9999C6.162 12.9999 4.30354 12.9038 2.47754 12.7148C1.06477 12.5686 0 11.3904 0 9.97455V6.02533C0 4.67834 0.95769 3.54779 2.25781 3.31733L0.220703 1.28022C-0.0721901 0.987324 -0.0721901 0.512563 0.220703 0.21967ZM3.62793 4.68744C3.28779 4.71493 2.94815 4.74502 2.60938 4.78022C1.97737 4.84622 1.5 5.38133 1.5 6.02533V9.97455C1.5 10.6185 1.98693 11.1555 2.63184 11.2226C5.1871 11.4873 7.78278 11.5477 10.3672 11.4267L3.62793 4.68744Z" fill="black"/>
<path d="M5.88965 3.05658C8.44065 2.95658 11.0024 3.02508 13.5234 3.28608C14.9362 3.43227 16.001 4.61045 16.001 6.02631V9.97553C16.001 10.8465 15.5988 11.6248 14.9648 12.1308L13.8828 11.0488C14.2518 10.8308 14.501 10.4346 14.501 9.97455V6.02533C14.501 5.38139 14.0141 4.84436 13.3691 4.77729C11.5941 4.59329 9.78798 4.49994 8.00098 4.49994C7.78499 4.49994 7.56657 4.51354 7.35059 4.51654L5.88965 3.05658Z" fill="black"/>
</svg>

<!-- This Source Code Form is subject to the terms of the Mozilla Public
   - License, v. 2.0. If a copy of the MPL was not distributed with this
   - file, You can obtain one at http://mozilla.org/MPL/2.0/. -->
<svg xmlns="http://www.w3.org/2000/svg" width="16" height="16" fill="context-fill" fill-opacity="context-fill-opacity" viewBox="0 0 16 16">
    <path d="M4.001 7a1 1 0 1 1 0 2 1 1 0 0 1 0-2" />
    <path fill-rule="evenodd" d="M.22.22a.75.75 0 0 1 1.061 0L4.213 3.15h.003l1.41 1.41h-.003l6.738 6.739h.005l1.373 1.373h-.005l2.047 2.047a.75.75 0 1 1-1.06 1.06l-2.918-2.918C10.533 12.952 9.259 13 8 13c-1.838 0-3.696-.096-5.522-.285A2.75 2.75 0 0 1 0 9.975v-3.95a2.74 2.74 0 0 1 2.258-2.708L.22 1.28a.75.75 0 0 1 0-1.06m3.408 4.467q-.51.041-1.019.093A1.243 1.243 0 0 0 1.5 6.025v3.95c0 .643.487 1.18 1.132 1.248 2.555.264 5.15.325 7.735.204z" clip-rule="evenodd" />
    <path d="M5.89 3.057c2.55-.1 5.112-.032 7.633.23a2.75 2.75 0 0 1 2.478 2.74v3.949a2.75 2.75 0 0 1-1.036 2.155l-1.082-1.082c.369-.218.618-.614.618-1.074v-3.95c0-.644-.487-1.18-1.132-1.248A52 52 0 0 0 8.001 4.5c-.216 0-.434.014-.65.017z" />
</svg>
